!!!COM:	Bach, Johann Sebastian
!!!CDT:	1685/02/21/-1750/07/28/
!!!OTL@@DE:	Nun lieget alles unter dir
!!!SCT:	BWV 11/6
!!!PC#:	343
!!!AGN:	chorale
**kern	**kern	**kern	**kern
*ICvox	*ICvox	*ICvox	*ICvox
*Ibass	*Itenor	*Ialto	*Isoprn
*I"Bass	*I"Tenor	*I"Alto	*I"Soprano
*>[A,A,B]	*>[A,A,B]	*>[A,A,B]	*>[A,A,B]
*>norep[A,B]	*>norep[A,B]	*>norep[A,B]	*>norep[A,B]
*>A	*>A	*>A	*>A
*	*oclefC4	*oclefC3	*oclefC1
*clefF4	*clefGv2	*clefG2	*clefG2
*k[f#c#]	*k[f#c#]	*k[f#c#]	*k[f#c#]
*D:	*D:	*D:	*D:
*M3/4	*M3/4	*M3/4	*M3/4
*MM100	*MM100	*MM100	*MM100
=1-	=1-	=1-	=1-
8DL	4F#	4A	4d
8C#J	.	.	.
4BB	8F#L	4d	4d
.	8DJ	.	.
4AA	4A	8dL	4e
.	.	8c#J	.
=2	=2	=2	=2
4.D	8AL	2d	4.f#
.	8F#J	.	.
.	4B	.	.
8E	.	.	8g#
4F#	4A	8c#L	4a
.	.	8AJ	.
=3	=3	=3	=3
8DL	4B	4f#	2a
8BBJ	.	.	.
4E	8BL	2e	.
.	8c#J	.	.
4EE	4d	.	4g#
=4	=4	=4	=4
2AA;	2c#;	2e;	2a;
4D	4A	8dL	4f#
.	.	8c#J	.
=5	=5	=5	=5
4E	4G	8BL	2g
.	.	8c#J	.
4.F#	8AL	[2d	.
.	8GJ	.	.
.	[4A	.	4f#
8G	.	.	.
=6	=6	=6	=6
8AL	4.A]	8dL]	2e
8GJ	.	16c#L	.
.	.	16BJJ	.
4F#	.	4c#	.
.	8G	.	.
8BL	4F#	[4d	4d
8AJ	.	.	.
=7	=7	=7	=7
8GL	4B	4d]	2.e
8EJ	.	.	.
4A	4.A	8c#L	.
.	.	8BJ	.
4AA	.	4c#	.
.	8G	.	.
=8	=8	=8	=8
2.DD;	2.F#;	2.A;	2.d;
=9:|!	=9:|!	=9:|!	=9:|!
*>B	*>B	*>B	*>B
4AA	8AL	8c#L	4e
.	8G#J	8BJ	.
8AL	4A	4.c#	4e
8GJ	.	.	.
4F#	4A	.	4f#
.	.	8d#	.
=10	=10	=10	=10
4.E	8BL	4e	2g
.	8AJ	.	.
.	2G	4B	.
8DnXL	.	.	.
8C	.	[4e	4g
8BBJ	.	.	.
=11	=11	=11	=11
8AAL	4c	4e]	4.f#
8FF#J	.	.	.
4BB	4.B	8d#L	.
.	.	8c#XJ	8e
4BB	.	4d#	4f#
.	8A	.	.
=12	=12	=12	=12
2.EE;	2.G;	2.B;	2.e;
=13	=13	=13	=13
8BBL	4B	4d#	4f#
8C#XJ	.	.	.
4D#	8F#L	4B	4f#
.	8GJ	.	.
4BB	8AL	4d#	4f#
.	8BJ	.	.
=14	=14	=14	=14
4.E	8GL	4e	4.g
.	8F#J	.	.
.	4E	4B	.
8F#L	.	.	8a
8G	8eL	4B	4b
8F#J	8dnXJ	.	.
=15	=15	=15	=15
8EL	4.c#	8gL	2b
8DJ	.	8f#J	.
4C#	.	8eL	.
.	8B	8dJ	.
4F#	4c#	4e	4a#
=16	=16	=16	=16
2BB;	2B;	2d;	2b;
4F#	4A#	4f#	4cc#
=17	=17	=17	=17
4.B	4.B	8f#L	4dd
.	.	8eJ	.
.	.	2d	2f#
8AnXL	8F#	.	.
8G	8BL	.	.
8F#J	8AJ	.	.
=18	=18	=18	=18
8EL	8GL	8c#L	2g
8DJ	8F#J	8dJ	.
4C#	8E	4e	.
.	4A	.	.
4D	.	[4d	4f#
.	8G#	.	.
=19	=19	=19	=19
4AA	4A	8dL]	4e
.	.	8BJ	.
4AA;	4A;	4c#;	4e;
4FF#	4A	4d	4a
=20	=20	=20	=20
4.GG	8GL	4d	4.b
.	8AJ	.	.
.	8BL	8gL	.
8AA	8c#J	8f#J	8a
8BBL	8dL	8eL	4g
8C#J	8AJ	8dJ	.
=21	=21	=21	=21
8DL	8AL	4.d	8f#L
8GGJ	8BJ	.	8eJ
2AA	4A	.	4.e
.	.	8B	.
.	4G	4c#	.
.	.	.	8d
=22	=22	=22	=22
2.DD;	2.F#;	2.A;	2.d;
==	==	==	==
*-	*-	*-	*-
!!!YOR1: 371 vierstimmige Choralges&auml;nge von Johann Sebastian Bach, 
!!!YOR2: 4th ed. by Alfred D&ouml;rffel (Leipzig: Breitkopf und H&auml;rtel, 
!!!YOR2: c.1875). 178 pp. Plate "V.A.10".  reprint: J.S. Bach, 371 Four-Part 
!!!YOR4: Chorales (New York: Associated Music Publishers, Inc., c.1940).
!!!SMS: B&H, 4th ed, Alfred D&ouml;rffel, c.1875, plate V.A.10
!!!EED:  Craig Stuart Sapp
!!!EEV:  2009/05/22
